build/svg/cmd/lc_substract.svg

<?xml version="1.0" encoding="UTF-8" standalone="no"?>
<svg
   xmlns:dc="http://purl.org/dc/elements/1.1/"
   xmlns:cc="http://creativecommons.org/ns#"
   xmlns:rdf="http://www.w3.org/1999/02/22-rdf-syntax-ns#"
   xmlns:svg="http://www.w3.org/2000/svg"
   xmlns="http://www.w3.org/2000/svg"
   xmlns:sodipodi="http://sodipodi.sourceforge.net/DTD/sodipodi-0.dtd"
   xmlns:inkscape="http://www.inkscape.org/namespaces/inkscape"
   viewBox="0 0 24 24"
   version="1.1"
   id="svg4"
   sodipodi:docname="lc_substract.svg"
   inkscape:export-filename="/home/jupiter007/Libreoffice yaru theme fullcolor/build/cmd/lc_substract.png"
   inkscape:export-xdpi="96"
   inkscape:export-ydpi="96"
   inkscape:version="0.92.5 (2060ec1f9f, 2020-04-08)">
  <metadata
     id="metadata10">
    <rdf:RDF>
      <cc:Work
         rdf:about="">
        <dc:format>image/svg+xml</dc:format>
        <dc:type
           rdf:resource="http://purl.org/dc/dcmitype/StillImage" />
      </cc:Work>
    </rdf:RDF>
  </metadata>
  <defs
     id="defs8" />
  <sodipodi:namedview
     pagecolor="#ffffff"
     bordercolor="#666666"
     borderopacity="1"
     objecttolerance="10"
     gridtolerance="10"
     guidetolerance="10"
     inkscape:pageopacity="0"
     inkscape:pageshadow="2"
     inkscape:window-width="1920"
     inkscape:window-height="1011"
     id="namedview6"
     showgrid="false"
     inkscape:zoom="27.812867"
     inkscape:cx="9.9664181"
     inkscape:cy="11.30135"
     inkscape:window-x="0"
     inkscape:window-y="32"
     inkscape:window-maximized="1"
     inkscape:current-layer="svg4" />
  <path
     style="opacity:1;fill:#6d6d6d;fill-opacity:1;stroke:none;stroke-width:2;stroke-linejoin:round;stroke-miterlimit:4;stroke-dasharray:none;stroke-opacity:1"
     d="M 4,9 C 3.446,9 3,9.4460002 3,10 v 10 c 0,0.554 0.446,1 1,1 h 10 c 0.554,0 1,-0.446 1,-1 V 16.919922 C 14.669011,16.970497 14.33482,16.997258 14,17 v 3 H 4 V 10 h 3 c 0.0021,-0.3347727 0.028204,-0.6689637 0.078125,-1 z"
     id="rect823"
     inkscape:connector-curvature="0"
     sodipodi:nodetypes="sssssscccccccs" />
  <path
     style="opacity:1;fill:#fee581;fill-opacity:1;stroke:none;stroke-width:2;stroke-linejoin:round;stroke-miterlimit:4;stroke-dasharray:none;stroke-opacity:1"
     d="M 4,10 V 20 H 14 V 17 C 10.134007,17 7,13.865993 7,10 Z"
     id="rect825"
     inkscape:connector-curvature="0"
     sodipodi:nodetypes="cccccc" />
  <path
     inkscape:connector-curvature="0"
     style="opacity:1;fill:#6d6d6d;fill-opacity:1;stroke:none;stroke-width:2.33333325;stroke-linejoin:round;stroke-miterlimit:4;stroke-dasharray:none;stroke-opacity:1"
     d="M 14,3.0000002 A 7,7 0 0 0 7,10 a 7,7 0 0 0 7,7 7,7 0 0 0 7,-7 7,7 0 0 0 -7,-6.9999998 z m 0,1 A 6,6 0 0 1 20,10 6,6 0 0 1 14,16 6,6 0 0 1 8,10 6,6 0 0 1 14,4.0000002 Z"
     id="circle841" />
</svg>

<svg xmlns="http://www.w3.org/2000/svg" viewBox="0 0 24 24"><path d="M4 9c-.554 0-1 .446-1 1v10c0 .554.446 1 1 1h10c.554 0 1-.446 1-1v-3.08a7 7 0 01-1 .08v3H4V10h3a7 7 0 01.078-1z" fill="#6d6d6d"/><path d="M4 10v10h10v-3a7 7 0 01-7-7z" fill="#fee581"/><path d="M14 3a7 7 0 00-7 7 7 7 0 007 7 7 7 0 007-7 7 7 0 00-7-7zm0 1a6 6 0 016 6 6 6 0 01-6 6 6 6 0 01-6-6 6 6 0 016-6z" fill="#6d6d6d"/></svg>
